X:5375
T:Flowers of Cahirciveen Reel
M:2/4
L:1/16
K:Bb
F2|Bdfa bfgf|edcB AcFE|DFBd ABcd|ecdB AcF2|!
Bdfa bfgf|edcB AcFE|DFBd EFAc|ecAc B2:|!
|:FE|DFBF dFBF|DFBF dFBF|EGBG eGBG|EGBG eGBG|!
DFBF dFBF|DFBF dFBF|fAce AceA|ceAc B2:|!
